X:0256
T:The Auld Man ill ne'er die.
T:The Auld Man 'ill ne'er die.
N:second title from the index
M:C|
L:1/8
Q:1/2=104
I: :| ||
Z:Jack Campin * www.campin.me.uk * 2009
K:G
GBdG    e2eg|dBGB    A/A/A    A2|GBdB e2ef|gagd        B/B/B B2:|
g(aTge) dedB|g(aTge) agab       |gage dega|gegd        B/B/B B2 |
gage    dedB|gage    f/e/f/g/ ab|gbeg dega|b/a/g/f/ gd B/B/B B2|]
<end>
<start>
